X: 081
T: Miss Erskine Wade's Jigg
C: by John Pringle
B: John Pringle "Collection of Reels Strathspeys & Jigs", 1801 p.8#1
Z: 2011 John Chambers <jc:trillian.mit.edu>
Q: "Slowish"
R: jig
M: 6/8
L: 1/8
K: G
V: 1
D |\
GBd {c}B2G | EAG ~F2F | GBd efg | (fa).c ~B2f |\
(gb).B ceA | EAG TF2D | (ce).A (Bd).G | EAF G2 :|
|: B/c/ |\
d>cB gfg | eag Tf2d | (gb).B ~cBc | (Ad).G ~F2D |\
(GB).D CEA | ~c>Bc DBc | dgb EAc | DAF G2 :|
V: 2 clef=bass middle=d
z |\
G3 g3 | c2^c d2z | b2g c2^c | def g2z |\
b2^g a2z | c2^c d2z | a2f g2B | c2d G2 :|
|: z |\
g3 G2B | c2^c d2z | b2g a2e | f2g d2z |\
B2^G A2c | a2g f2d | B2G c2A | d2D G2 :|

%%sep 2 1 500

